X: 20071
T: Jimmy McBride's
R: reel
M: 4/4
K: Cmajor
EF|:G2cG AGE2|GEDE GAcd|edc2 AGAc|dfef dBcA|
G2cG AGE2|GEDE GAcd|edc2 (3ABc GE|1 FEDE CDEF:|2 FEDE C3f||
|:eg^fg ecBc|eg^fg ecBc|Add^c defg|(3agf (3gfe fedf|
ecBc GcEc|AFEF CFA,F|GABc dagf|1 efde c3f:|2 efde c2||

